X:1
T:All Glory, Laud, and Honor
T:Text: Theodulph of Orleans, c. 820; tr. John M. Neale, 1851, alt. Tune: Melchior Teschner, 1615; harm. Johann S. Bach, 1685-1750, alt.
T:76 76 D ST. THEODULPH www.hymnary.org/text/all_glory_laud_and_honor
T:All Glory, Laud, and Honor
T:This hymn is in the public domain. You may freely use this score for personal and congregational worship. If you reproduce the score, please credit Hymnary.org as the source. 
T:This hymn is in the public domain. You may freely use this score for personal and congregational worship. If you reproduce the score, please credit Hymnary.org as the source. 
Z:This hymn is in the public domain. You may freely use this score for personal and congregational worship. If you reproduce the score, please credit Hymnary.org as the source.
%%score ( 1 2 ) ( 3 4 )
L:1/8
M:4/4
K:Bb
V:1 treble nm="SOPRANO ALTO" snm="S. A."
V:2 treble 
V:3 bass nm="TENOR BASS" snm="T. B."
V:4 bass 
V:1
"^1""^2""^3" B,2 | F2 F2 G2 A2 | B4 B2 d2 | c2 B2 B2 A2 | B6 | B,2 | F2 F2 G2 A2 | B4 B2 d2 | %8
w: All|glo- ry, laud, and|hon- or to|you, Re- deem- er,|King,|to|whom the lips of|chil- dren made|
w: The|com- pa- ny of|an- gels is|prais- ing you on|high;|and|we with all cre-|a- tion in|
w: To|you be- fore your|pas- sion they|sang their hymns of|praise;|to|you, now high ex-|alt- ed, our|
 c2 B2 B2 A2 | B6 | B2 | d2 d2 c2 B2 | (A2 G2) F2 A2 | B2 A2 G2 G2 | F6 |1 F2 | D2 F2 G2 F2 | %17
w: sweet ho- san- nas|ring.|You|are the King of|Is- ra- el and|Da- vid's roy- al|Son,|now|in the Lord's name|
w: cho- rus make re-|ply.|The|peo- ple of the|He- * brews with|palms be- fore you|went;|our|praise and prayer and|
w: mel- o- dy we|raise.|As|you re- ceived their|prais- * es, ac-|cept the prayers we|bring,|for|you de- light in|
 (F2 E2) D2 F2 | E2 D2 C2 C2 | B,6 x2 |] %20
w: com- * ing, the|King and Bless- ed|One.|
w: an- * thems be-|fore you we pre-|sent.|
w: good- * ness, O|good and gra- cious|King!|
V:2
 F,2 | B,2 D2 E2 D2 | D4 D2 G2 | G2 E2 D2 C2 | D6 | F,2 | B,2 D2 E2 D2 | D4 D2 G2 | G2 E2 D2 C2 | %9
 D6 | D2 | F2 G2 G2 =E2 | (F2 =E2) C2 F2 | F2 F2 F2 =E2 | C6 |1 C2 | B,2 D2 E2 D2 | %17
 (D2 C2) _B,2 B,2 | B,2 B,2 B,2 =A,2 | F,6 x2 |] %20
V:3
 D,2 | F,2 B,2 B,2 A,2 | G,4 G,2 B,2 | G,2 G,2 F,2 F,2 | F,6 | D,E, | F,2 B,2 B,2 A,2 | %7
 G,4 G,2 B,2 | G,2 G,2 F,2 F,2 | F,6 | F,2 | B,2 B,2 C2 C2 | (C2 B,2) A,2 C2 | B,2 C2 D2 CB, | %14
 A,6 |1 F,2 | F,2 B,2 B,2 _A,2 | G,4 G,2 D,2 | E,2 F,2 G,2 F,E, | D,6 x2 |] %20
V:4
 B,,2 | D,2 B,,2 E,2 ^F,,2 | G,,4 G,,2 G,2 | E,2 C,2 F,2 F,,2 | B,,6 | B,,C, | D,2 B,,2 E,2 ^F,,2 | %7
 G,,4 G,,2 G,=F, | E,D, C,2 F,2 F,,2 | B,,6 | B,,2 | B,A,G,F, =E,2 C,2 | F,4 F,,2 _E,2 | %13
 D,2 C,2 B,,2 C,2 | F,,6 |1 A,,2 | B,,2 _A,,2 G,,=A,, =B,,2 | C,4 G,,2 _A,,2 | %18
 G,,2 F,,2 E,,2 F,,2 | B,,6 x2 |] %20

